packages/core/src/svgs/qrl.svg

<svg width="24" height="24" viewBox="0 0 24 24" fill="none" xmlns="http://www.w3.org/2000/svg">
<g clip-path="url(#clip0_31_16728)">
<path d="M0 0H24V24H0V0Z" fill="#1D2951"/>
<path d="M19.4999 15.4284C19.6542 15.4284 19.7142 15.5612 19.7142 15.7112V17.1427H14.9999V15.8998C14.9999 15.7841 15.0642 15.6855 15.1499 15.6212C17.2842 14.1727 18.1928 11.4941 17.1985 9.10694C16.2042 6.72408 13.4699 5.15979 10.9414 5.66979C8.41279 6.17122 6.4285 8.52837 6.4285 11.1127C6.4285 12.8827 7.31993 14.5412 8.77279 15.5441C8.83812 15.5787 8.89338 15.6297 8.93318 15.692C8.97298 15.7544 8.99598 15.8259 8.99993 15.8998V17.1427H4.28564V15.7027C4.28564 15.5441 4.34136 15.4284 4.49993 15.4284C4.6585 15.4284 4.71422 15.5441 4.71422 15.7027V16.7141H8.56707L8.57136 15.8569C6.44136 14.3569 5.48993 11.7855 6.27422 9.29551C6.66324 8.08456 7.42806 7.02911 8.45766 6.28234C9.48725 5.53558 10.728 5.13636 11.9999 5.14265C13.2726 5.13721 14.5141 5.53661 15.5449 6.28312C16.5757 7.02964 17.3424 8.0846 17.7342 9.29551C18.5228 11.7812 17.5628 14.3527 15.4328 15.8569V16.7141H19.2899V15.7112C19.2899 15.5612 19.3499 15.4327 19.5042 15.4284H19.4999ZM15.5999 11.5412C16.2428 12.3341 16.4356 13.0412 16.1571 13.5041C15.9428 13.8641 15.4928 14.0612 14.8328 14.0612C14.4214 14.0484 14.0099 13.9884 13.6114 13.8812C13.2514 15.1112 12.6685 15.8955 11.9999 15.8955C11.3356 15.8955 10.7528 15.1112 10.3971 13.8812C9.9985 13.9884 9.59136 14.0527 9.17564 14.0612C8.51993 14.0612 8.06136 13.8641 7.85136 13.5041C7.5085 12.9255 7.8985 12.0255 8.78564 11.1041C8.65707 10.9712 8.5285 10.8255 8.4085 10.6755C7.76564 9.88694 7.57279 9.19265 7.85136 8.70837C8.06564 8.34837 8.51993 8.15122 9.17993 8.15122C9.59136 8.15979 9.9985 8.21979 10.3971 8.32694C10.7614 7.10122 11.3399 6.31265 12.0085 6.31265C12.6771 6.31265 13.2599 7.10122 13.6114 8.33551C14.0099 8.22837 14.4214 8.17265 14.8328 8.16408C15.4928 8.16408 15.9471 8.35694 16.1614 8.72122C16.4356 9.20122 16.2428 9.89979 15.6042 10.6884C15.4842 10.8384 15.3599 10.9798 15.2228 11.1169C15.3599 11.2498 15.4842 11.3912 15.6042 11.5455L15.5999 11.5412ZM14.8456 8.50694C14.4599 8.51551 14.0742 8.57122 13.7056 8.66122C13.8042 9.10265 13.8771 9.54837 13.9199 9.99837C14.2842 10.2641 14.6314 10.5469 14.9656 10.8555C15.0942 10.7269 15.2142 10.5855 15.3256 10.4569C15.8528 9.79694 16.0499 9.23122 15.8528 8.88408C15.6814 8.57122 15.2056 8.50694 14.8456 8.50694ZM12.8056 12.5098C13.0756 12.3512 13.3371 12.1841 13.5771 12.0169C13.6028 11.7169 13.6114 11.4212 13.6114 11.1041C13.6114 10.7912 13.5942 10.4827 13.5771 10.1955C13.0746 9.85645 12.5474 9.55561 11.9999 9.29551C11.4491 9.54645 10.9225 9.84773 10.4271 10.1955C10.3971 10.4827 10.3885 10.7912 10.3885 11.1041C10.3885 11.4212 10.4099 11.7298 10.4271 12.0169C10.9285 12.3598 11.4556 12.6598 11.9999 12.9255C12.2785 12.8012 12.5442 12.6641 12.8056 12.5098ZM13.5385 12.4798L12.9942 12.8141C12.8056 12.9255 12.6214 13.0284 12.4371 13.1227C12.7371 13.2512 13.0542 13.3712 13.3714 13.4655C13.4356 13.1569 13.4914 12.8312 13.5385 12.4798ZM11.5842 13.1227L11.0271 12.8141C10.8447 12.7043 10.6632 12.5928 10.4828 12.4798C10.5171 12.8141 10.5685 13.1398 10.6499 13.4655C10.9671 13.3669 11.2799 13.2512 11.5842 13.1227ZM10.0714 11.7427C10.0585 11.5284 10.0542 11.3141 10.0499 11.0998C10.0499 10.8769 10.0628 10.6712 10.0714 10.4569C9.80136 10.6584 9.54422 10.8727 9.29993 11.0998C9.54422 11.3269 9.80136 11.5455 10.0714 11.7427ZM10.4871 9.74551C10.8424 9.51154 11.21 9.29694 11.5885 9.10265C11.2842 8.97408 10.9714 8.85837 10.6542 8.75979C10.5899 9.06837 10.5342 9.39408 10.4828 9.74551H10.4871ZM12.4328 9.10265C12.6171 9.19694 12.8014 9.29979 12.9899 9.41122L13.5342 9.74551C13.4999 9.41551 13.4485 9.08551 13.3671 8.75979C13.0499 8.85837 12.7371 8.97408 12.4328 9.10265ZM13.9585 10.4698C13.9671 10.6841 13.9799 10.8898 13.9799 11.1127C13.9799 11.3312 13.9671 11.5455 13.9585 11.7555C14.2285 11.5412 14.4856 11.3269 14.7171 11.1127C14.4788 10.8817 14.2254 10.667 13.9585 10.4698ZM12.0128 6.65979C11.5414 6.65979 11.0614 7.31122 10.7442 8.41694C11.1814 8.54551 11.6014 8.71265 12.0128 8.89694C12.4242 8.71265 12.8485 8.55408 13.2856 8.41694C12.9685 7.31122 12.4756 6.65979 12.0128 6.65979ZM8.17279 8.87979C7.96707 9.22265 8.16422 9.80122 8.69993 10.4398C8.81136 10.5812 8.93136 10.7098 9.05993 10.8512C9.38908 10.5426 9.73842 10.2563 10.1056 9.99408C10.1485 9.54408 10.2214 9.09837 10.3199 8.65694C9.94707 8.56265 9.56564 8.50694 9.17993 8.50265C8.81993 8.50265 8.35707 8.56694 8.17279 8.87979ZM9.17136 13.7141C9.55707 13.7098 9.94279 13.6541 10.3114 13.5469C10.2128 13.1055 10.1399 12.6598 10.0971 12.2098C9.72422 11.9527 9.37279 11.6698 9.04279 11.3527C8.24564 12.1841 7.9285 12.9255 8.16422 13.3369C8.33564 13.6498 8.80707 13.7141 9.17136 13.7141ZM12.0042 15.5569C12.4671 15.5569 12.9599 14.9055 13.2771 13.7998C12.8399 13.6669 12.4199 13.5041 12.0042 13.3155C11.5928 13.5041 11.1728 13.6669 10.7356 13.7998C11.0528 14.9055 11.5414 15.5569 12.0042 15.5569ZM15.8571 13.3369C16.0542 12.9984 15.8571 12.4241 15.3299 11.7641C15.2151 11.6267 15.095 11.4937 14.9699 11.3655C14.6404 11.6737 14.2911 11.96 13.9242 12.2227C13.8814 12.6727 13.8085 13.1184 13.7099 13.5598C14.0828 13.6541 14.4642 13.7098 14.8499 13.7141C15.2099 13.7141 15.6728 13.6498 15.8571 13.3369ZM11.9999 9.85694C12.1704 9.85095 12.3402 9.88011 12.4989 9.94261C12.6576 10.0051 12.8018 10.0996 12.9224 10.2202C13.043 10.3408 13.1375 10.4849 13.2 10.6436C13.2625 10.8023 13.2916 10.9722 13.2856 11.1427C13.2856 11.8884 12.7456 12.4284 11.9999 12.4284C11.8295 12.4344 11.6596 12.4052 11.5009 12.3427C11.3422 12.2802 11.1981 12.1857 11.0775 12.0651C10.9569 11.9445 10.8624 11.8004 10.7999 11.6417C10.7374 11.483 10.7082 11.3131 10.7142 11.1427C10.7082 10.9722 10.7374 10.8023 10.7999 10.6436C10.8624 10.4849 10.9569 10.3408 11.0775 10.2202C11.1981 10.0996 11.3422 10.0051 11.5009 9.94261C11.6596 9.88011 11.8295 9.85095 11.9999 9.85694ZM11.9999 11.9998C12.113 12.0015 12.2252 11.9805 12.33 11.9381C12.4348 11.8956 12.5299 11.8325 12.6099 11.7526C12.6898 11.6727 12.7529 11.5775 12.7954 11.4727C12.8378 11.3679 12.8588 11.2557 12.8571 11.1427C12.8594 11.0294 12.8388 10.9169 12.7966 10.8119C12.7543 10.7068 12.6913 10.6114 12.6112 10.5314C12.5312 10.4513 12.4357 10.3882 12.3307 10.346C12.2256 10.3037 12.1131 10.2832 11.9999 10.2855C11.4814 10.2898 11.1428 10.6798 11.1428 11.1427C11.1428 11.6055 11.4856 12.0127 11.9999 11.9998Z" fill="white"/>
</g>
<defs>
<clipPath id="clip0_31_16728">
<rect width="24" height="24" fill="white"/>
</clipPath>
</defs>
</svg>

<svg xmlns="http://www.w3.org/2000/svg" width="24" height="24" fill="none" viewBox="0 0 24 24"><g clip-path="url(#a)"><path fill="#1D2951" d="M0 0h24v24H0z"/><path fill="#fff" d="M19.5 15.428c.154 0 .214.133.214.283v1.432H15V15.9c0-.116.064-.215.15-.279 2.134-1.448 3.043-4.127 2.048-6.514-.994-2.383-3.728-3.947-6.257-3.437-2.528.501-4.513 2.858-4.513 5.443 0 1.77.892 3.428 2.345 4.431A.43.43 0 0 1 9 15.9v1.243H4.286v-1.44c0-.159.055-.275.214-.275s.214.116.214.275v1.011h3.853l.004-.857c-2.13-1.5-3.081-4.071-2.297-6.561A5.98 5.98 0 0 1 12 5.143a6 6 0 0 1 5.734 4.153c.789 2.485-.171 5.057-2.301 6.56v.858h3.857v-1.003c0-.15.06-.278.214-.283zm-3.9-3.887c.643.793.836 1.5.557 1.963-.214.36-.664.557-1.324.557a5.4 5.4 0 0 1-1.222-.18c-.36 1.23-.943 2.015-1.611 2.015-.664 0-1.247-.785-1.603-2.015a5 5 0 0 1-1.221.18c-.656 0-1.115-.197-1.325-.557-.343-.578.048-1.479.935-2.4a6 6 0 0 1-.377-.428c-.643-.79-.836-1.483-.558-1.968.215-.36.669-.557 1.329-.557a5 5 0 0 1 1.217.176c.364-1.226.943-2.014 1.611-2.014.67 0 1.252.788 1.603 2.023a5 5 0 0 1 1.222-.172c.66 0 1.114.193 1.328.557.275.48.082 1.179-.557 1.967-.12.15-.244.292-.381.429.137.133.261.274.381.428zm-.754-3.034a5.3 5.3 0 0 0-1.14.154q.148.663.214 1.337c.364.266.711.549 1.046.857.128-.128.248-.27.36-.398.527-.66.724-1.226.527-1.573-.172-.313-.647-.377-1.007-.377m-2.04 4.003c.27-.159.531-.326.771-.493.026-.3.034-.596.034-.913 0-.313-.017-.621-.034-.909q-.755-.51-1.577-.9c-.55.251-1.078.553-1.573.9-.03.288-.038.596-.038.91 0 .316.02.625.038.912a12.5 12.5 0 0 0 1.573.909q.415-.186.806-.416m.733-.03-.545.334q-.281.166-.557.309c.3.128.617.248.934.343.065-.31.12-.635.168-.986m-1.955.643-.557-.309q-.274-.165-.544-.334c.034.334.085.66.167.986q.477-.15.934-.343m-1.513-1.38a16 16 0 0 1-.021-.643c0-.223.013-.429.021-.643q-.405.302-.771.643c.244.227.501.446.771.643m.416-1.997q.533-.352 1.101-.643a10 10 0 0 0-.934-.343q-.095.46-.171.986zm1.946-.643q.275.141.557.308l.544.335a7 7 0 0 0-.167-.986q-.477.148-.934.343m1.526 1.367c.008.214.02.42.02.643 0 .218-.012.433-.02.643.27-.215.527-.43.758-.643a7.5 7.5 0 0 0-.758-.643m-1.946-3.81c-.472 0-.952.651-1.269 1.757.437.129.857.296 1.269.48q.616-.275 1.273-.48c-.317-1.106-.81-1.757-1.273-1.757m-3.84 2.22c-.206.343-.009.921.527 1.56.111.141.231.27.36.411q.495-.463 1.046-.857.065-.675.214-1.337a5 5 0 0 0-1.14-.154c-.36 0-.823.064-1.007.377m.998 4.834c.386-.004.772-.06 1.14-.167a11 11 0 0 1-.214-1.337 8.4 8.4 0 0 1-1.054-.857c-.797.831-1.114 1.572-.879 1.984.172.313.643.377 1.007.377m2.833 1.843c.463 0 .956-.652 1.273-1.757a10 10 0 0 1-1.273-.485c-.411.19-.831.352-1.268.485.317 1.105.805 1.757 1.268 1.757m3.853-2.22c.197-.339 0-.913-.527-1.573a7 7 0 0 0-.36-.398q-.495.462-1.046.857-.065.674-.214 1.337c.373.094.754.15 1.14.154.36 0 .823-.064 1.007-.377M12 9.857a1.24 1.24 0 0 1 1.286 1.286c0 .745-.54 1.285-1.286 1.285a1.243 1.243 0 0 1-1.286-1.285A1.243 1.243 0 0 1 12 9.857M12 12a.846.846 0 0 0 .857-.857.84.84 0 0 0-.857-.857.84.84 0 0 0-.857.857c0 .462.343.87.857.857"/></g><defs><clipPath id="a"><path fill="#fff" d="M0 0h24v24H0z"/></clipPath></defs></svg>
